html/app/assets/img/ui/star-filled.svg

<svg fill="none" height="18" viewBox="0 0 19 18" width="19" xmlns="http://www.w3.org/2000/svg"><path d="m8.96537 2.32897c.19562-.39631.29343-.59446.42621-.65777.11553-.05509.24975-.05509.36528 0 .13278.06331.23059.26146.42624.65777l1.8559 3.75986c.0577.117.0866.1755.1288.22092.0374.04022.0822.0728.132.09595.0562.02614.1207.03558.2498.05445l4.1514.60678c.4372.0639.6558.09585.7569.20262.088.0929.1294.22055.1127.34742-.0193.14582-.1775.29995-.494.60821l-3.0029 2.92482c-.0936.0911-.1404.1367-.1706.191-.0267.048-.0439.1007-.0505.1553-.0075.0616.0036.126.0257.2548l.7085 4.1311c.0747.4358.1121.6536.0419.7829-.0611.1125-.1697.1914-.2956.2147-.1446.0268-.3403-.0761-.7316-.2818l-3.71125-1.9518c-.11563-.0608-.17345-.0912-.23436-.1031-.05393-.0106-.10941-.0106-.16334 0-.06091.0119-.11873.0423-.23437.1031l-3.71129 1.9518c-.39127.2057-.58691.3086-.73156.2818-.12586-.0233-.23447-.1022-.29556-.2147-.07022-.1293-.03286-.3471.04187-.7829l.70854-4.1311c.02208-.1288.03313-.1932.02566-.2548-.00662-.0546-.02378-.1073-.05052-.1553-.0302-.0543-.077-.0999-.17061-.191l-3.00284-2.92482c-.31649-.30826-.47474-.46239-.494-.60821-.01675-.12687.02464-.25452.11265-.34742.10116-.10677.31974-.13872.7569-.20262l4.15139-.60678c.1291-.01887.19365-.02831.24987-.05445.04977-.02315.09459-.05573.13195-.09595.0422-.04542.07108-.10392.12883-.22092z" fill="#fffa66" stroke="#222" stroke-linecap="round" stroke-linejoin="round" stroke-width="1.5"/></svg>

<svg width="19" height="18" viewBox="0 0 19 18" fill="none" xmlns="http://www.w3.org/2000/svg">
<path d="M8.96537 2.32897C9.16099 1.93266 9.2588 1.73451 9.39158 1.6712C9.50711 1.61611 9.64133 1.61611 9.75686 1.6712C9.88964 1.73451 9.98745 1.93266 10.1831 2.32897L12.039 6.08883C12.0967 6.20583 12.1256 6.26433 12.1678 6.30975C12.2052 6.34997 12.25 6.38255 12.2998 6.4057C12.356 6.43184 12.4205 6.44128 12.5496 6.46015L16.701 7.06693C17.1382 7.13083 17.3568 7.16278 17.4579 7.26955C17.5459 7.36245 17.5873 7.4901 17.5706 7.61697C17.5513 7.76279 17.3931 7.91692 17.0766 8.22518L14.0737 11.15C13.9801 11.2411 13.9333 11.2867 13.9031 11.341C13.8764 11.389 13.8592 11.4417 13.8526 11.4963C13.8451 11.5579 13.8562 11.6223 13.8783 11.7511L14.5868 15.8822C14.6615 16.318 14.6989 16.5358 14.6287 16.6651C14.5676 16.7776 14.459 16.8565 14.3331 16.8798C14.1885 16.9066 13.9928 16.8037 13.6015 16.598L9.89025 14.6462C9.77462 14.5854 9.7168 14.555 9.65589 14.5431C9.60196 14.5325 9.54648 14.5325 9.49255 14.5431C9.43164 14.555 9.37382 14.5854 9.25818 14.6462L5.54689 16.598C5.15562 16.8037 4.95998 16.9066 4.81533 16.8798C4.68947 16.8565 4.58086 16.7776 4.51977 16.6651C4.44955 16.5358 4.48691 16.318 4.56164 15.8822L5.27018 11.7511C5.29226 11.6223 5.30331 11.5579 5.29584 11.4963C5.28922 11.4417 5.27206 11.389 5.24532 11.341C5.21512 11.2867 5.16832 11.2411 5.07471 11.15L2.07187 8.22518C1.75538 7.91692 1.59713 7.76279 1.57787 7.61697C1.56112 7.4901 1.60251 7.36245 1.69052 7.26955C1.79168 7.16278 2.01026 7.13083 2.44742 7.06693L6.59881 6.46015C6.72791 6.44128 6.79246 6.43184 6.84868 6.4057C6.89845 6.38255 6.94327 6.34997 6.98063 6.30975C7.02283 6.26433 7.05171 6.20583 7.10946 6.08883L8.96537 2.32897Z" fill="#FFFA66" stroke="#222222" stroke-width="1.5" stroke-linecap="round" stroke-linejoin="round"/>
</svg>
